!!!OTL: 576. Die Voeglein im Tannenmald. / [Tanzliedchen.]
!!!ODT: 1822
!!!ARE: Europa, Mitteleuropa, Deutschland, Schwaben
!!!SCT: E0576
!!!TXL: @@DE
!!!YEM: Copyright 1995, estate of Helmut Schaffrath.
**kern	**text
*ICvox	*
*M3/8	*
*met(3)	*
*k[b-]	*
*F:	*
=1	=1
!LO:TX:a:t=Mäßig bewegt.	!
!LO:TX:a:t=Schwäbiſch. 1822.	!
{16f	Vö-
16g	-ge-
8a	-le
8b-	im
=2	=2
8cc	Tan-
8dd	-nen-
8cc}	-wald
=3	=3
{8dd	pfei-
8cc	-fet
8b-	ſo
=4	=4
8a	hell,
16ff	ti-
16ff	-ri-
8ff}	-li!
=5	=5
{16f	Vö-
16g	-ge-
8a	-le
8b-	im
=6	=6
8cc	Tan-
8dd	-nen-
8cc}	-wald
=7	=7
{(16b-qq	.
8dd)	pfei-
8cc	-fet
8b-	ſo
=8	=8
4a	hell.
8r}	.
=9	=9
{8a	Pfei-
16cc	-fet
16cc	de
8cc	Wald
=10	=10
8cc	aus
8b-	und
8b-}	ein,
=11	=11
{8b-/	wo
8a	wird
8a	mein
=12	=12
8a	Schä-
16g	-tʒe-
16g	-le
8g}	ſein?
=13	=13
{16f	Vö-
16g	-ge-
8a	-le
8b-	im
=14	=14
8cc	Tan-
8dd	-nen-
8cc}	-wald
=15	=15
{8dd	pfei-
8cc	-fet
8b-	ſo
=16	=16
4.a}	hell.
==	==
!!!AGN: Liebes - Lied
!!!ONB: ESAC (Essen Associative Code) Database: ERK1
!!!AMT: simple triple
!!!AIN: vox
!!!EED: Helmut Schaffrath
!!!EEV: 1.0
!!!GTL: Liebeslieder [Neuere (aus dem 18. bis 19. Jahrh.) - Liebeslust]
!!!URL-scan: https://rosdok.uni-rostock.de/mcrviewer/recordIdentifier/rosdok_ppn745177662/iview2/phys_0406.iview2?x=-128.77276441889308&y=1410.159368235385&scale=0.5870222003877485&rotation=0&layout=singlePageLayout
!!!ENC: Anna Maria Matuszewska
!!!EEV: 2024/11/12
*-	*-
